X:385
%%etbk:tnset id:109,pos:2,rep:3x,ant:
%%etbk:wsite http://www.thesession.org/tunes/display/1550
%%etbk:pldat 2015-04-30T18:31,2015-04-08T18:40,2015-04-04T16:03,2015-03-26T18:52,2015-03-24T16:04,2015-01-18T11:53,2014-05-09T18:23,2014-05-01T18:15,2013-11-24T14:10
T: Humours Of Derrycrossane, The
Z: Piano Box Version by Martin Fleischmann
H: Created 2013-02-19 /  Last Modified 2013-02-19
M: 9/8
L: 1/8
R: slip jig
K: Gmaj
|: !2!BBB B!4!dB !3!c2!1!A | !2!B!1!A!1!G !2!BdB !1!ABc | !2!B!1!A!1!G BdB !3!c2!5!e|1 !4!d!2!B!1!G G (3GGG G2G:|2 dBG G (3GGG G3||
!5!g2g !4!e!3!d!2!c !1!Bcd | !4!e!2!c!1!A !1!A !3!(3A!2!A!1!A !1!A2!3!d | !5!gGg !4!edc !1!Bcd | !5!g!3!d!2!B !1!G (3GGG G2!3!d|
!5![g3G] !4!edc !1!Bcd | !4!e!2!c!1!A A (3AAA A2!3!d | !1!def !4!gfe !1!def | !4!g!5!b!4!g !5!agf !4!g3||


